!!!OTL: Abendfeier.
!!!OTL-incipit: WIE IST DER ABEND SO TRAULICH
!!!COM: Anacker
!!!ARE: Europa, Mitteleuropa, Deutschland
!!!SCT: F1018
!!!TXL: @@DE
!!!YEM: Copyright 1995, estate of Helmut Schaffrath.
**kern	**text	**text	**text
*ICvox	*	*	*
*clefG2	*	*	*
*M6/8	*	*	*
*k[b-]	*	*	*
*F:	*	*	*
!LO:TX:a:t=Andante.	!	!	!
!LO:TX:a:t=(Kann einſtimmig, auch ʒweiſtimmich gesungen werden.)	!	!	!
!LO:TX:a:t=P:only the highest voice encoded:problem	!	!	!
{8cc/	1._Wie	2._Die	3._Ja
=1	=1	=1	=1
4a	iſt	Blu-	al-
8a	der	-men	-les
8.b-/	A-	müſ-	be-
16a	-bend	-ſen	-tet
8b-/	ſo	wohl	le-
=2	=2	=2	=2
(>4cc/	trau-	ſchwei-	-ben-
8ff/)	.	.	.
4a}	-lich,	-gen,	-dig
{8cc	wie	kein	um
=3	=3	=3	=3
(>8.f	lächelnd	Ton	ei-
16g)	.	.	.
8a	der	iſt	-ne
8.aL	Tag	Blumen	ſe-
16b-J	.	.	-li-
8cc/	ver-	be-	-ge
=4	=4	=4	=4
(>4.g	-ſchied;	-ſcheert,	Ruh',
4cc/)}	.	.	.
{8cc/	wie	doch	und
=5	=5	=5	=5
[>8.a	1._ſin-	2._ſtil-	3._Al-
16a]	-gen	.	.
8a	ſo	-le	-les
(>8.b-/	herʒ-	Be-	mahnt
16a)	-lich	.	mich
8b-/	er-	-ter	in-
=6	=6	=6	=6
(>4cc/	-bau-	nei-	-ſtän-
8ff/)	.	.	.
4a}	-lich	-gen	-dig:
{8cc/	die	ſie	o
=7	=7	=7	=7
8.f	Vö-	Al-	Manſchenkind
16g	-gel	-le	.
8a	ihr	das	.
(>8.cc/	A-	Haupt	be-
16b-/)	.	.	-te
16gL	-bend-	ʒur	auch
16aJ	.	.	.
=8	=8	=8	=8
[>4.f	-lied.	Erd'.	du.
8f]	.	.	.
8r}	.	.	.
==	==	==	==
!!!AGN: Erbauungs - Lied, religioes; Tageszeiten - Lied, Abend
!!!ONB: ESAC (Essen Associative Code) Database: FINK
!!!AMT: compound duple
!!!AIN: vox
!!!EED: Helmut Schaffrath
!!!EEV: 1.0
!!Text: Spitta
!!!RDF**kern: > = above
!!!GTL: Erbauungslieder
!!!source: Musikalischer Hausschatz der Deutschen. Eine Sammlung von über 1000 Liedern und Gesängen mit Singstimmen und Klavierbegleitung. Leipzig, Litterarisches Verlags-Haus.
!!!page: 768
!!!URL-scan: https://www.digitale-sammlungen.de/en/view/bsb11144622?page=648
!!!ENC: Anna Maria Matuszewska
!!!EEV: 2024/08/09
*-	*-	*-	*-